X: 21072
T: the AERIAL QUADRILLES. NO. 4.--la Trenise.
%R: march, reel
B: W. Hamilton "Universal Tune-Book" Vol. 2 Glasgow 1846 p.107 #2
S: http://s3-eu-west-1.amazonaws.com/itma.dl.printmaterial/book_pdfs/hamiltonvol2web.pdf
Z: 2016 John Chambers <jc:trillian.mit.edu>
N: The "D.C." at the end really should be "D.S.".
M: 2/4
L: 1/16
K: Bb
% - - - - - - - - - - - - - - - - - - - - - - - - -
FF !segno!|!f!\
B2FF B2FF | B2c2d2e2 | f2(=eg) f2(eg) | f6 (=ef) |\
g2f2 c2=Bc | e2d2 B2AB | d2c2 F2GA | B6 |]\
F2 |!p!\
F2d2c2B2 | c2F2F2F2 | F2c2B2A2 | B4 B2B2 |
B2A2B2c2 | d2f2e2d2 | d2c2B2c2 | d4 d2e2 |\
d2c2G2A2 | B2c2d2f2 | f2e2G2A2 | B4 A2B2 |\
c2d2e2f2 | a2g2f2e2 | d2c2e2d2 | B6 |]
[K:F=e][K:F]
AB |\
c2Ac f2ed | cccc c2=Bc | d2c2B2G2 | A2FE FGAB |\
c2Ac f2cf | aaaa a2ba | gfed cBAG | F2FF F2"^D.C."FF !segno!|]
% - - - - - - - - - - - - - - - - - - - - - - - - -
